remix/Logos/linkedin-box-line.svg

<svg viewBox="0 0 24 24" fill="currentColor" xmlns="http://www.w3.org/2000/svg"><path d="M4.00098 3H20.001C20.5533 3 21.001 3.44772 21.001 4V20C21.001 20.5523 20.5533 21 20.001 21H4.00098C3.44869 21 3.00098 20.5523 3.00098 20V4C3.00098 3.44772 3.44869 3 4.00098 3ZM5.00098 5V19H19.001V5H5.00098ZM7.50098 9C6.67255 9 6.00098 8.32843 6.00098 7.5C6.00098 6.67157 6.67255 6 7.50098 6C8.3294 6 9.00098 6.67157 9.00098 7.5C9.00098 8.32843 8.3294 9 7.50098 9ZM6.50098 10H8.50098V17.5H6.50098V10ZM12.001 10.4295C12.5854 9.86534 13.2665 9.5 14.001 9.5C16.072 9.5 17.501 11.1789 17.501 13.25V17.5H15.501V13.25C15.501 12.2835 14.7175 11.5 13.751 11.5C12.7845 11.5 12.001 12.2835 12.001 13.25V17.5H10.001V10H12.001V10.4295Z"/></svg>

<svg viewBox="0 0 24 24" xmlns="http://www.w3.org/2000/svg"><path fill="none" d="M0 0h24v24H0Z"/><path d="M4 3h16v0c.55 0 1 .44 1 1v16 0c0 .55-.45 1-1 1H4v0c-.56 0-1-.45-1-1V4v0c0-.56.44-1 1-1Zm1 2v14h14V5H5Zm2.5 4v0C6.67 9 6 8.32 6 7.5 6 6.67 6.67 6 7.5 6v0C8.32 6 9 6.67 9 7.5 9 8.32 8.32 9 7.5 9Zm-1 1h2v7.5h-2V10Zm5.5.43c.58-.57 1.266-.93 2-.93 2.07 0 3.5 1.67 3.5 3.75v4.25h-2v-4.25 0c0-.97-.79-1.75-1.75-1.75 -.97 0-1.75.78-1.75 1.75v4.25h-2V10h2v.43Z"/></svg>
